X:1
T:Pirates of the Caribbean - Medley for 4 hands
T:   Pirates of the Caribbean - Medley for 4 hands
T:Transcribed from Benjamin DV & Els C.'s video
%%score { ( 1 3 ) | ( 2 4 ) } { ( 5 7 ) | 6 }
L:1/8
Q:3/8=130
M:12/8
K:C
V:1 treble nm="Piano" snm="Pia."
V:3 treble 
V:2 treble 
V:4 treble 
V:5 bass nm="Piano" snm="Pia."
V:7 bass 
V:6 bass 
V:1
!f!!8va(! d''d''d'' !/!d''3 !/!d''3 !/!d''3 |[K:C] !/!d''3 !/!d''3 !/!d''3 !/!d''3 | %2
 !/!d''3 !/!d''3 !/!d''3 !/!d''3 | !/!d''3 !/!d''3 !/!d''3 !/!d''3 | %4
 !/!d''3 !/!d''3 !/!d''3 !/!d''3 | !/!d''3 !/!d''3 !/!d''3 !/!d''3 | %6
 !/!d''3 !/!d''3 !/!d''3 !/!d''3 | !/!d''3 !/!d''3 !/!d''3 !/!d''3 |!ff! d''3 z8 f'' | %9
 d''3 z8 f'' | d''3 z2 f'' d''2 f''2 _b''a'' | d'2!8va)! z8!f! z2 | %12
({/a'b')} .c''2 c'' b' d''2 a'2 c'' b' g'2 | .c''2 c'' b' g'2 a'2 f' d'3 | %14
({/a'b')} .c''2 c'' b' d''2 a'2 c'' b' g'2 | .c''2 c'' b' g'2 a'g'f' g'e'c' |[M:6/8] !>!d'3 z3 || %17
[K:F][M:1/4][Q:1/4=70]!mp!!8va(! ac' |[M:3/4] d'4 d'e' | f'4 f'g' | e'4 d'c' |[M:4/4] c'2 d'4 ac' | %22
!mf! d'2 d'e' f'2 f'g' |[M:3/4] e'6!8va)! |!f![Q:1/4=130] d''6 | z6 | z2 [fad']2 [ae']2 | %27
 [ad'f']3 g' a'2 | [c'e'g']2 f'2 e'2 | [ac'f']2 g'2 a'2 | [c'e'g']4 f'g' | [c'f'a']3 g' f'2 | %32
 [a^c'e']2 [ad'f']2 [ac'e']2 | [fad']3 [ac'e'] [eac']2 | [fad'] [fad']2 [fc'] [da]2 | %35
 [da] [da]2 [da] [ec'][ae'] | [ad'f']3 [ae'] [ad'f']2 | [c'e'g']2 [c'f']2 [c'e'g']2 | %38
 [c'f'a']3 [c'e'g'] [ac'f']2 | [fbd']4 [fbd'][a^c'e'] | [ad'f']2 [bd'g']2 [ad'a']2 | %41
 [bd'b']2 [gbd']3 [bd'g'] | [ad'f']3 [ad'g'] [a^c'e']2 |!>(! [d'f'a']4 [d'f'][^c'e']!>)! | d'6 || %45
!mp! d'3 a d'2 | e'2 a2 e'2 |({/d'e')} f'3 e' d'2 | e'4 d'e' |"_Accelerando"!<(! f'3 e' d'2 | %50
 c'2 f'2 a2 | g2 f2 g2 | !>!a2 !>!=b2 !>!^c'2!<)! |[Q:1/4=155]!f! d'>c' d'e' f'a | %54
 d'2{/f'} e'c' d'a | d'>c' d'e' f'g' | a'2 e'2 c'2 | d'>c' d'e' f'a | d'2{/f'} e'c' d'a | %59
 d'>c' d'e' f'g' |!<(! a'2 =b'2 ^c''2!<)! |[M:1/4]!ff! [fad'][ae'] | %62
[M:3/4][Q:1/4=140] [ad'f']3 g' a'2 | [c'e'g']2 f'2 e'2 | [ac'f']2 g'2 a'2 | [c'e'g']4 f'g' | %66
 [c'f'a']3 g' f'2 | [a^c'e']4 [ad'f']2- | [ad'f']2 [a^c'e']4 | %69
[M:4/4][Q:1/4=180]!f! d'2 d'2 d'2 c'd'- | d' d'2 f'2 a' g'2 | d'2 d'2 d'2 c'd'- | %72
 d' f'2 ^g'2 =g' f'2 | d'2 d'2 d'2 c'd'- | d' d'2 f'2 a' g'2 | d'2 d'2 d'2 c'd'- | %76
 d' f'2 ^g'2 =g' f'2 | d'2 d'2 d'2 c'3/2 z/ | %78
!<(! [d'd''][^c'^c''][=c'=c''][=b=b'] [_b_b'][aa'][^g^g'][=g=g']!<)! | %79
 [^f^f'][=f=f'][ee'] z[Q:1/4=250]!ff!!ff! d2 d^d | d^d =d2 d^d=d^d | d2 d^d =d^d =d2 | %82
 f2 c2 d2 d^d | d^d =d2 d^d=d^d | d2 d^d =d^d =d2 | f2 c2 !>!d2 !>!c2 | !>!A4 z4 | %87
[M:3/4]!p!"_cresc." [dd']2 dd' dd' | [ee']2 ee' ee' | [ff']2 ff' ff' | [gg']2 [aa']2 [bb']2 | %91
 [aa']2 [=b=b']2 [^c'^c'']2 |!f! d'2 d'e' f'd' | e'2 d'2 c'2 | d'2 d'e' f'd' | e'2 f'2 g'2 | %96
 g'2 g'a' b'g' | a'2 g'2 f'2 | e'2 d'2 c'2 | d'2 z2 d'2 | d'2 d'e' f'd' | e'2 d'2 c'2 | %102
 d'2 d'e' f'd' | e'2 f'2 g'2 | g'2 g'a' b'g' | a'2 g'2 f'2 | e'2 d'2 c'2 | d'2 z2 d'2 | %108
 d'2 z2 d'2 |!ff! [ad'f'a']3 a/d'/ f'/a'/f'/d'/ | [bd'f'b']3 b/d'/ f'/b'/f'/d'/ | %111
 [ac'f'a']2 [ac'f'a']2 [ac'f'a']2 | ([ac'f'a'] [gc'e'g']3) [ceg]2 | [gbd'g']3 g/b/ d'/g'/d'/b/ | %114
 [fad'f']3 f/a/ d'/f'/d'/a/ | [a^c'e']2 [ad'f']3 [ac'e'] | [fad']4 (f/ a/d'/f'/) | %117
 [ad'f'a']3 a/d'/ f'/a'/f'/d'/ | [bd'f'b']3 b/d'/ f'/b'/f'/d'/ | [ac'f'a']2 [ac'f'a']2 [ac'f'a']2 | %120
 ([ac'f'a'] [gc'e'g']3) [ceg]2 | a2 =b2 ^c'2 | d'2 e'2 f'2 | ((ga =b^c' d'e')) | [ad'f']3 g' a'2 | %125
 [c'e'g']2 f'2 e'2 | [ac'f']2 g'2 a'2 | [c'e'g']4 f'g' | [c'f'a']3 g' f'2 | %129
 [a^c'e']2 [ad'f']2 [ac'e']2 | [fad']3 [ac'e'] [eac']2 | [fad'] [fad']3 d'e' | %132
 [ad'f']3 [ae'] [ad'f']2 | [c'e'g']2 [c'f']2 [c'e'g']2 | [c'f'a']3 [c'e'g'] [ac'f']2 | %135
 [fbd']4 [fbd'][a^c'e'] | [ad'f']2 [bd'g']2 [ad'a']2 | [bd'b']2 [gbd']3 [bd'g'] | %138
 [ad'f']3 [ad'g'] [a^c'e']2 | [d'f'a']4 [d'f'][^c'e'] |"_cresc." a2 =b2 ^c'2 | d'2 e'2 f'2 | %142
 ^f'2 g'2 ^g'2 |!8va(! a'2 =b'2 ^c''2 | d''2 e''2 f''2 | ^f''2 g''2 ^g''2 | %146
!ff! a''2 [^c''e''a'']2 [c''e''a'']2 | [^c''e''a'']6!8va)! ||[K:C][M:1/4][Q:1/4=90]!p! (((e'g'))) | %149
[M:4/4] a'6 (((a'b'))) | c''6 (c''d'') | b'6 (a'g') | (g'2 a'6-) |[M:2/4] a'2 (e'g') | %154
[M:4/4] a'2 (a'b') c''2 (c''d'') | b'2 (a'g') (((g'a')))(e'g') | a'2 (a'b') c''2 (c''d'') | %157
 b'2 ((((a'g')))) a'4- |!<(! a'2 (((a'c''))) (d''c''_b'a'!<)! | g'f')(((f'e'))) d'2 (d'c') | %160
!>(! (d'e'f'g' a'd')(d'f')!>)! | e'4 !fermata!^c''4 || %162
[M:12/8]!ff![Q:3/8=150]!8va(! d''2 d'' d''2 d'' d''2 d'' d''d''d'' | %163
 d''2 d'' d''2 d'' d''2 d'' d''d''d'' | d''2 d'' d''2 d'' d''2 d'' z a'c'' | %165
!f! [f'a'd'']2 [f'a'd'']2 d''e'' [_b'd''f'']2 [b'd''f'']2 f''g'' | %166
 [a'e'']2 [a'e'']2 d''c'' c'' d''3 a'c'' | %167
 [f'_b'd'']2 [f'b'd'']2 d''e'' [a'c''f'']2 [a'c''f'']2 f''g'' | %168
 [g'c''e'']2 [g'c''e'']2 d''c'' [f'a'd'']4 a'c'' | %169
 [f'a'd'']2 [f'a'd'']2 d''f'' [_b'd''g'']2 [b'd''g'']2 [d''g''][d''a''] | %170
 [d''g''_b'']2 [d''g''b'']2 [d''a''][d''g''] [f''a''] d''3 d''e'' | %171
 [_b'd''f'']2 [b'd''f'']2 [b'd''g'']2 [f''a''] d''3 e''f'' | %172
 [a'^c''e'']2 [a'c''e'']2 f''e'' [a'c''e'']4 a'=c'' | %173
 [f'a'd'']2 [f'a'd'']2 d''e'' [_b'd''f'']2 [b'd''f'']2 f''g'' | %174
 [a'e'']2 [a'e'']2 d''c'' c'' d''3 a'c'' | %175
 [f'_b'd'']2 [f'b'd'']2 d''e'' [a'c''f'']2 [a'c''f'']2 f''g'' | %176
 [g'c''e'']2 [g'c''e'']2 d''c'' [f'a'd'']4 a'c'' | %177
 [f'a'd'']2 [f'a'd'']2 d''f'' [_b'd''g'']2 [b'd''g'']2 [d''g''][d''a''] | %178
 [d''g''_b'']2 [d''g''b'']2 [d''a''][d''g''] [f''a''] d''3 d''e'' | %179
 [_b'd''f'']2 [b'd''f'']2 [b'd''g'']2 [f''a''] d''3 e''f'' | %180
 [a'^c''e'']2 [a'c''e'']2 f''e'' [a'c''e'']2 [a'c''e'']2 f''e'' | %181
 [a'^c''e'']2 [a'c''e'']2 f''e'' [a'c''e'']2 [a'c''e'']2 f''e'' | %182
!<(! [a'^c''e'']6 [ad'f'a']2 [ad'f'a']2 [ad'f'a']2 | %183
 [ad'f'a']2 [ad'f'a']2 [ad'f'a']2 [ad'f'a']2 [ad'f'a']2 [ad'f'a']2!8va)!!<)! | %184
[M:3/4]!ff! [ad'f'a']3 a/d'/ f'/a'/f'/d'/ | [_bd'f'_b']3 b/d'/ f'/b'/f'/d'/ | %186
 [ac'f'a']2 [ac'f'a']2 [ac'f'a']2 | (([ac'f'a'] [gc'e'g']3)) [ceg]2 | [g_bd'g']3 g/b/ d'/g'/d'/b/ | %189
 [fad'f']3 f/a/ d'/f'/d'/a/ | [a^c'e']2 [ad'f']3 [ac'e'] | [fad']4 (f/ a/d'/f'/) | %192
 [ad'f'a']3 a/d'/ f'/a'/f'/d'/ | [_bd'f'_b']3 b/d'/ f'/b'/f'/d'/ | %194
 [ac'f'a']2 [ac'f'a']2 [ac'f'a']2 | ((([ac'f'a'] [gc'e'g']3))) [ceg]2 |"_cresc." a2 b2 ^c'2 | %197
 d'2 e'2 f'2 | ^f'2 g'2 ^g'2 |!8va(! a'2 b'2 ^c''2 | d''2 e''2 f''2 | ^f''2 g''2 ^g''2 |!ff! a''6 | %203
[Q:1/4=130] [d''g''_b'']6 | [_b'd''g'']2 [b'd''f'']2 [b'd''f'']2 |[M:4/4] e''d'' d''6 | %206
[Q:1/4=135]!<(! [_bd'g']2 [bd'f']2 [bd'f']2 [bd'e']2!<)! |!ff![Q:1/4=180] d''2 d''2 d''2 d''2 | %208
 d''2 d''2 d''2 d''2!8va)! | z2 d''2 z4 |] %210
V:2
 d'3 d3 d'3 d3 |[K:C] d'3 d3 d'3 d3 | d'3 d3 d'3 d3 | d'3 d3 d'3 d3 | d'3 d3 d'3 d3 | %5
 d'3 d3 d'3 d3 | d'3 d3 d'3 d3 | d'3 d3 d'3 d3 | [dd']3 z8 [ff'] | [dd']3 z8 [ff'] | %10
 [dd']3 z2 [ff'] [dd']2 [ff']2 [_b_b'][aa'] | [dd']2 z8 z2 |{/ab} .c'2 c' b d'2 a2 c' b g2 | %13
 .c'2 c' b g2 a2 f d3 |{/ab} .c'2 c' b d'2 a2 c' b g2 | .c'2 c' b g2 agf gec |[M:6/8] !>!d3 z3 || %17
[K:F][M:1/4] z2 |[M:3/4] [fa]6 | [bd']6 | [ac']6 |[M:4/4] z2 [fa]6 | [fa]4 [bd']4 | %23
[M:3/4] [a^c']6 | [dd']6 | z6 | z6 | z6 | z6 | z6 | z6 | z6 | [A^ce]2 [Adf]2 [Ace]2 | [FAd]3 z3 | %34
 [FAd] [FAd]2 z3 | z6 | z6 | z6 | z6 | z6 | z6 | z6 | z6 | z6 | d6 || d3 A d2 | e2 A2 e2 | %47
({/de)} f3 e d2 | e4 de | f3 e d2 | c2 f2 A2 | G2 F2 G2 | !>!A2 !>!=B2 !>!^c2 | d>c de fA | %54
 d2{/f} ec dA | d>c de fg | a2 e2 c2 | d>c de fA | d2{/f} ec dA | d>c de fg | a2 =b2 ^c'2 | %61
[M:1/4] z2 |[M:3/4] z6 | z6 | z6 | z6 | z6 | [A^ce]4 [Adf]2- | [Adf]2 [A^ce]4 | %69
[M:4/4] d2 d2 d2 cd- | d d2 f2 a g2 | d2 d2 d2 cd- | d f2 ^g2 =g f2 | d2 d2 d2 cd- | d d2 f2 a g2 | %75
 d2 d2 d2 cd- | d f2 ^g2 =g f2 | d2 d2 d2 c>[dd']- | %78
 [dd']/[^c^c'][=c=c'][=B=b][_B_b][Aa][^G^g][=G=g][^F^f]/- | [Ff]/[=F=f][Ee][^D^d]3/2 =D2 z2 | %80
 z2 D2 z4 | D2 z4 D2 | F2 C2 D2 z2 | z2 D2 z4 | D2 z4 D2 | F2 C2 !>!D2 !>!C2 | !>!A,4 z4 | %87
[M:3/4] D2 Dd Dd | E2 Ee Ee | F2 Ff Ff | G2 A2 B2 | A2 =B2 ^c2 | d2 de fd | e2 d2 c2 | d2 de fd | %95
 e2 f2 g2 | g2 ga bg | a2 g2 f2 | e2 d2 c2 | d2 z2 d2 | d2 de fd | e2 d2 c2 | d2 de fd | e2 f2 g2 | %104
 g2 ga bg | a2 g2 f2 | e2 d2 c2 | d2 z2 d2 | d2 z2 d2 | [df]2 d/f/ z3 | [df]2 d/f/ z3 | %111
 [Acf]2 [Acf]2 [Acf]2 | ([Acf] [ce]3) z2 | [Bd]2 B/d/ z3 | [Ad]2 A/d/ z3 | [A^ce]2 [Adf]3 [Ace] | %116
 [FAd]6 | [df]2 d/f/ z3 | [df]2 d/f/ z3 | [Acf]2 [Acf]2 [Acf]2 | ([Acf] [ce]3) z2 | z6 | z6 | z6 | %124
!mf! z6 | z6 | z6 | z6 | z6 | [A^ce]2 [Adf]2 [Ace]2 | [FAd]3 z3 | [fad'] [fad']3 z2 | z6 | z6 | %134
 z6 | z6 | z6 | z6 | z6 | z6 | A2 =B2 ^c2 | d2 e2 f2 | ^f2 g2 ^g2 |!8va(! a2 =b2 ^c'2 | %144
 d'2 e'2 f'2 | ^f'2 g'2 ^g'2 | a'2 [^c'e'a']2 [c'e'a']2 | [^c'e'a']6!8va)! ||[K:C][M:1/4] (eg) | %149
[M:4/4] a6 (((ab))) | c'6 (((c'd'))) | b6 (ag) | (g2 a6-) |[M:2/4] a2 (eg) | %154
[M:4/4] a2 (ab) c'2 (c'd') | b2 ((ag)) (((ga)))(eg) | a2 (ab) c'2 (((c'd'))) | b2 ((ag)) a4- | %158
 a2 ((ac')) (d'c'_ba | gf)(fe) d2 (dc) | (defg ad)(df) | !arpeggio!e4 !arpeggio!^c'4 || %162
[M:12/8] [dd']2 z8 z2 | [dd']2 z8 z2 | [dd']2 z4 [dd']3 [Aa]3 | [dd']3 [dd']3 [_B_b]3 [Bb]3 | %166
 [Aa]3 [Aa]3 [dd']3 [dd']3 | [_B_b]3 [Bb]3 [Ff]3 [Ff]3 | [cc']3 [cc']3 [dd']3 d d2 | %169
 [dd']3 [dd']3 [_B_b]3 [Bb]3 | [Gg]3 [Gg]3 [dd']3 [dd']3 | [_B_b]3 [Bb]3 [dd']3 [dd']3 | %172
 [Aa]3 [Aa]3 [Aa]3 [Aa]3 | [dd']3 [dd']3 [_B_b]3 [Bb]3 | [Aa]3 [Aa]3 [dd']3 [dd']3 | %175
 [_B_b]3 [Bb]3 [Ff]3 [Ff]3 | [cc']3 [cc']3 [dd']3 d d2 | [dd']3 [dd']3 [_B_b]3 [Bb]3 | %178
 [Gg]3 [Gg]3 [dd']3 [dd']3 | [_B_b]3 [Bb]3 [dd']3 [dd']3 | [Aa]3 [Aa]3 [Aa]3 [Aa]3 | %181
 [Aa]3 [Aa]3 [Aa]3 [Aa]3 | z4 z2 [Adf]3 [Adf]3 | [Adf]3 [Adf]3 [Adf]3 [Adf]3 | %184
[M:3/4] [df]2 d/f/ z3 | [df]2 d/f/ z3 | [Acf]2 [Acf]2 [Acf]2 | ([Acf] [ce]3) z2 | [_Bd]2 B/d/ z3 | %189
 [Ad]2 A/d/ z3 | [A^ce]2 [Adf]3 [Ace] | [FAd]6 | [df]2 d/f/ z3 | [df]2 d/f/ z3 | %194
 [Acf]2 [Acf]2 [Acf]2 | (([Acf] [ce]3)) z2 | A2 B2 ^c2 | d2 e2 f2 | ^f2 g2 ^g2 |!8va(! a2 b2 ^c'2 | %200
 d'2 e'2 f'2 | ^f'2 g'2 ^g'2 | a'6 | [d'g'_b']6!8va)! | [_bd'g']2 [bd'f']2 [bd'f']2 | %205
[M:4/4] e'd' [fad']6 | [_Bdg]2 [Bdf]2 [Bdf]2 [Bde]2 | !//-!d4 d'4 | !//-!d4 d'4 | z2 [dd']2 z4 |] %210
V:3
!8va(! x12 |[K:C] x12 | x12 | x12 | x12 | x12 | x12 | x12 | x12 | x12 | x12 | x2!8va)! x10 | x12 | %13
 x12 | x12 | x12 |[M:6/8] x6 ||[K:F][M:1/4]!8va(! x2 |[M:3/4] x6 | x6 | x6 |[M:4/4] x8 | x8 | %23
[M:3/4] x6!8va)! | x6 | x6 | x6 | x6 | x6 | x6 | x6 | x3 c'3 | x6 | x6 | x6 | x6 | x6 | x6 | x6 | %39
 x6 | x6 | x6 | x6 | x3 a3 | x6 || x6 | x6 | x6 | x6 | x6 | x6 | x6 | x6 | x6 | x6 | x6 | x6 | x6 | %58
 x6 | x6 | x6 |[M:1/4] x2 |[M:3/4] x6 | x6 | x6 | x6 | x3 c'3 | x6 | x6 |[M:4/4] x8 | x8 | x8 | %72
 x8 | x8 | x8 | x8 | x8 | x8 | x8 | x8 | x8 | x8 | x8 | x8 | x8 | x8 | x8 |[M:3/4] x6 | x6 | x6 | %90
 x6 | x6 | x6 | x6 | x6 | x6 | x6 | x6 | x6 | x6 | x6 | x6 | x6 | x6 | x6 | x6 | x6 | x6 | x6 | %109
 x6 | x6 | x6 | x6 | x6 | x6 | x6 | x6 | x6 | x6 | x6 | x6 | x6 | x6 | x6 | x6 | x6 | x6 | x6 | %128
 x3 c'3 | x6 | x6 | x6 | x6 | x6 | x6 | x6 | x6 | x6 | x6 | x3 a3 | x6 | x6 | x6 |!8va(! x6 | x6 | %145
 x6 | x6 | x6!8va)! ||[K:C][M:1/4] x2 |[M:4/4] x8 | x8 | x8 | x8 |[M:2/4] x4 |[M:4/4] x8 | x8 | %156
 x8 | x8 | x8 | x8 | x8 | x8 ||[M:12/8]!8va(! x12 | x12 | x12 | x12 | x6 a'4 x2 | x12 | x12 | x12 | %170
 x12 | x12 | x12 | x12 | x6 a'4 x2 | x12 | x12 | x12 | x12 | x12 | x12 | x12 | x12 | x12!8va)! | %184
[M:3/4] x6 | x6 | x6 | x6 | x6 | x6 | x6 | x6 | x6 | x6 | x6 | x6 | x6 | x6 | x6 |!8va(! x6 | x6 | %201
 x6 | x6 | x6 | x6 |[M:4/4] _b'2 x6 | x8 | x8 | x8!8va)! | x8 |] %210
V:4
 x12 |[K:C] x12 | x12 | x12 | x12 | x12 | x12 | x12 | x12 | x12 | x12 | x12 | x12 | x12 | x12 | %15
 x12 |[M:6/8] x6 ||[K:F][M:1/4] x2 |[M:3/4] x6 | x6 | x6 |[M:4/4] x8 | x8 |[M:3/4] x6 | x6 | x6 | %26
 x6 | x6 | x6 | x6 | x6 | x6 | x6 | x6 | x6 | x6 | x6 | x6 | x6 | x6 | x6 | x6 | x6 | x6 | x6 || %45
 x6 | x6 | x6 | x6 | x6 | x6 | x6 | x6 | x6 | x6 | x6 | x6 | x6 | x6 | x6 | x6 |[M:1/4] x2 | %62
[M:3/4] x6 | x6 | x6 | x6 | x6 | x6 | x6 |[M:4/4] x8 | x8 | x8 | x8 | x8 | x8 | x8 | x8 | x8 | x8 | %79
 x8 | x8 | x8 | x8 | x8 | x8 | x8 | x8 |[M:3/4] x6 | x6 | x6 | x6 | x6 | x6 | x6 | x6 | x6 | x6 | %97
 x6 | x6 | x6 | x6 | x6 | x6 | x6 | x6 | x6 | x6 | x6 | x6 | A6 | B6 | x6 | x G4- G | G6 | F6 | %115
 x6 | x6 | A6 | B6 | x6 | x G4- G | x6 | x6 | x6 | x6 | x6 | x6 | x6 | x6 | x6 | x6 | x6 | x6 | %133
 x6 | x6 | x6 | x6 | x6 | x6 | x6 | x6 | x6 | x6 |!8va(! x6 | x6 | x6 | x6 | x6!8va)! || %148
[K:C][M:1/4] x2 |[M:4/4] x8 | x8 | x8 | x8 |[M:2/4] x4 |[M:4/4] x8 | x8 | x8 | x8 | x8 | x8 | x8 | %161
 x8 ||[M:12/8] x12 | x12 | x12 | x12 | x12 | x12 | x12 | x12 | x12 | x12 | x12 | x12 | x12 | x12 | %176
 x12 | x12 | x12 | x12 | x12 | x12 | x12 | x12 |[M:3/4] A6 | _B6 | x6 | x G4- G | G6 | F6 | x6 | %191
 x6 | A6 | _B6 | x6 | x G4- G | x6 | x6 | x6 |!8va(! x6 | x6 | x6 | x6 | x6!8va)! | x6 | %205
[M:4/4] _b2 x6 | x8 | x8 | x8 | x8 |] %210
V:5
 z12 |[K:C] z12 |!f!({/A,B,)} .C2 C B, D2 A,2 C B, G,2 | .C2 C B, G,2 A,2 F, D,3 | %4
({/A,B,)} .C2 C B, D2 A,2 C B, G,2 | .C2 C B, G,2({/F,G,)} .A,2 F, A,3 | %6
({/A,B,)} .C2 C B, D2 A,2 C B, G,2 | .C2!<(! C B,G,F, (F,G,)G, F,E,C,!<)! | %8
 D,D,D, !/!D,3 !/!D,3 !/!D,3 | !/!D,3 !/!D,3 !/!D,3 !/!D,3 | !/!D,3 !/!D,3 !/!D,3 !/!D,3 | %11
 !/!D,3 !/!D,3 !/!D,3 !/!D,3 | D,F,D, F,D,F, D,F,D, F,D,F, | D,F,D, F,D,F, D,F,D, F,D,F, | %14
 D,F,D, F,D,F, D,F,D, F,D,F, | D,F,D, F,D,F, D,F,D, z3 |[M:6/8] z6 ||[K:F][M:1/4]!mp! z2 | %18
[M:3/4] A2 G4 | F2 E2 D2- | D2 C2 A,2 |[M:4/4] C2 B,6 | [F,A,]4 [B,D]4 |[M:3/4] [A,^C]6 |!f! D6 | %25
 z6 | z2 [F,A,D]2 [A,E]2 | [A,DF]3 [A,EG] [A,FA]2 | [CEG]2 [CF]2 [CE]2 | [A,CF]2 [CG]2 [CFA]2 | %30
 [CEG]4 [CF][CG] | [CFA]3 [CFG] [CF]2 | [A,^CE]2 [A,DF]2 [A,CE]2 | [F,A,D]3 [A,E] [E,C]2 | %34
 [F,A,D] [F,A,D]2 [F,C] [D,A,]2 | [D,A,] [D,A,]2 [D,A,] [E,C][A,E] | [A,DF]3 [A,E] [A,DF]2 | %37
 [CEG]2 [CF]2 [CEG]2 | [CFA]3 [CG] [A,F]2 | [F,D]4 [F,B,D][A,^CE] | [A,DF]2 [B,DG]2 [A,DA]2 | %41
 [DB]2 [G,B,D]3 [B,DG] | [A,DF]3 [A,DG] [A,^CE]2 |!>(! [DFA]4 [DF][^CE]!>)! | [F,A,D]6 || %45
!mp! F,4 A,2 | ^C2 A,2 C2 | D6 | ^C6 |"_Accelerando"!<(! [F,B,D]6 | [F,A,C]6 | [G,B,D]6 | %52
 [E,A,^C]2 [E,A,C]2 [E,A,C]2!<)! |!f! [F,A,D]2 z3 [F,A,D] | [F,A,D]2 z3 [F,A,D] | [F,A,D]2 z4 | %56
 z [C,E,A,]2 [C,E,A,]2 [C,E,A,] | [F,A,D]2 z3 [F,A,D] | [F,A,D]2 z3 [F,A,D] | [F,A,D]2 z4 | %60
!<(! [DFA]2 [DF=B]2 [EA^c]2!<)! |[M:1/4]!ff! [F,A,D][A,E] |[M:3/4] [A,DF]3 [A,EG] [A,FA]2 | %63
 [CEG]2 [CF]2 [CE]2 | [A,CF]2 [CG]2 [CFA]2 | [CEG]4 [CF][CG] | [CFA]3 [CFG] [CF]2 | %67
 [A,^CE]4 [A,DF]2- | [A,DF]2 [A,^CE]4 |[M:4/4]!f! z8 | z8 | z8 | z8 | z8 | z8 | z8 | z8 | z8 | %78
!<(! [D,D][^C,^C][=C,=C][=B,,=B,] [_B,,_B,][A,,A,][^G,,^G,][=G,,=G,]!<)! | %79
 [^F,,^F,][=F,,=F,][E,,E,] z!ff! D,,2 D,,^D,, | D,,^D,, =D,,2 D,,^D,,=D,,^D,, | %81
 D,,2 D,,^D,, =D,,^D,, (3(A,,B,,C, | (3B,,A,,G,, (3F,,E,,^D,,) =D,,2 D,,^D,, | %83
 D,,^D,, =D,,2 D,,^D,,=D,,^D,, | D,,2 D,,^D,, =D,,^D,, (3(A,,B,,C, | %85
 (3B,,A,,G,, (3F,,E,,^D,,) !>!D,2 !>!C,2 | !>!A,,4 z4 | %87
[M:3/4]!p!"_cresc." [D,A,]2 [D,A,]2 [D,A,]2 | [E,A,]2 [E,A,]2 [E,A,]2 | [F,A,]2 [F,A,]2 [F,A,]2 | %90
 [D,G,]2 [D,A,]2 [D,B,]2 | [D,A,]2 [D,=B,]2 [D,^C]2 |!f! [F,A,D]2 z4 | [E,A,C]2 z2 [E,A,C]2 | %94
 [F,A,D]2 z2 [F,A,D]2 | [E,A,C]2 z2 [E,A,C]2 | [G,B,D]2 z2 [G,B,D]2 | [F,A,D]2 z2 [F,A,D]2 | %98
 E2 D2 C2 | [F,A,D]2 [DF]2 [FA]2 | [F,A,D]2 z4 | [E,A,C]2 z2 [E,A,C]2 | [F,A,D]2 z2 [F,A,D]2 | %103
 [E,G,C]2 z2 [E,G,C]2 | [G,B,D]2 z2 [G,B,D]2 | [F,A,D]2 z2 [F,A,D]2 | E2 D2 C2 | %107
!<(! [F,A,D]2 [DF]2 [FA]2!<)! |!<(! [F,A,D]2 [DF]2 [FA]2!<)! |!ff! [A,DF]6 | [B,DF]6 | [A,CF]6 | %112
 [G,CE]6 | [G,B,D]6 | [F,A,D]6 | [A,^CE]6 | [F,A,D]6 | [A,DF]6 | [B,DF]6 | %119
 [A,CF]2 [A,CF]2 [A,CF]2 | [A,CF] [G,CE]4- [G,CE] | A,2 =B,2 ^C2 | D2 E2 F2 | GA =B^c de | %124
 [A,DF]2 z2 [A,DF]2 | [G,CE]2 z2 [G,CE]2 | [A,CF]2 z2 [A,CF]2 | [CEG]4 FG | [A,CF]2 z2 [A,CF]2 | %129
 [A,^CE]2 [A,DF]2 [A,CE]2 | [F,A,D]3 [A,CE] [E,A,C]2 | [F,A,D] [F,A,D]3 [F,A,D]2 | %132
 [A,DF]2 z2 [A,DF]2 | [G,CE]2 z2 [G,CE]2 | [A,CF]2 z2 [A,CF]2 | [F,B,D]4 [F,B,D][A,^CE] | %136
 [A,DF]2 [B,DG]2 [A,DA]2 | [G,B,D]2 z2 [G,B,D]2 | [F,A,D]2 z2 [A,^CE]2 | [F,A,D]2 z2 [A,^CE]2 | %140
"_cresc." A,2 =B,2 ^C2 | D2 E2 F2 | ^F2 G2 ^G2 |!8va(! A2 =B2 ^c2 | d2 e2 f2 | ^f2 g2 ^g2 | %146
!ff! a2 [^cea]2 [cea]2 | [^cea]6!8va)! ||[K:C][M:1/4]!p! z2 |[M:4/4] z2 (A,2 E4) | %150
 z2 (((A,2 F4))) | z2 (A,2 E4) | (A,2 B,2 C2) (^G,A, |[M:2/4] B, E3) |[M:4/4] [E,C]4 [C,A,]4 | %155
 [D,B,]4 [E,C]4 | [E,C]4 [A,C]2 [F,A,C]2 | [D,B,]4 [^F,D]4 | %158
!<(! [D,F,_B,] [D,F,B,]3 [F,B,D] [F,B,D]3!<)! | [D,G,_B,] [D,G,B,]3 [F,A,D] [F,A,D]3 | %160
!>(! [F,_B,D] [F,B,D]3 [F,A,D]2 [D,F,A,]2!>)! | [E,A,]8 ||[M:12/8]!ff! D2 D D2 D D2 D DDD | %163
 D2 D D2 D D2 D DDD | D2 D D2 D D2 D z A,C |!f! [F,A,D]2 [F,A,D]2 DE [_B,DF]2 [B,DF]2 FG | %166
 [A,CE]2 [A,CE]2 DC C D3 A,C | [F,_B,D]2 [F,B,D]2 DE [A,CF]2 [A,CF]2 FG | %168
 [G,CE]2 [G,CE]2 DC [F,A,D]4 A,C | [F,A,D]2 [F,A,D]2 DF [_B,DG]2 [B,DG]2 [DG][DA] | %170
 [DG_B]2 [DGB]2 AG [FA] D3 DE | [_B,DF]2 [B,DF]2 [B,DG]2 [FA] D3 EF | %172
 [A,^CE]2 [A,CE]2 FE [A,CE]4 A,=C | [F,A,D]2 [F,A,D]2 DE [_B,DF]2 [B,DF]2 FG | %174
 [A,CE]2 [A,CE]2 DC C D3 A,C | [F,_B,D]2 [F,B,D]2 DE [A,CF]2 [A,CF]2 FG | %176
 [G,CE]2 [G,CE]2 DC [F,A,D]4 A,C | [F,A,D]2 [F,A,D]2 DF [_B,DG]2 [B,DG]2 [DG][DA] | %178
 [DG_B]2 [DGB]2 [DA][DG] [FA] D3 DE | [_B,DF]2 [B,DF]2 [B,DG]2 [FA] D3 EF | %180
 [A,^CE]2 [A,CE]2 FE [A,CE]2 [A,CE]2 FE | [A,^CE]2 [A,CE]2 FE [A,CE]2 [A,CE]2 FE | %182
!<(! [A,^CE]2 [A,CE]2 [A,CE]2 [A,CE]2 [A,CE]2 [A,CE]2 | %183
 [A,^CE]2 [A,CE]2 [A,CE]2 [A,CE]2 [A,CE]2 [A,CE]2!<)! |[M:3/4]!ff! [A,DF]6 | [_B,DF]6 | %186
 [A,CF]2 [A,CF]2 [A,CF]2 | (([A,CF] [G,CE]4-)) [G,CE] | [G,_B,D]6 | [F,A,D]6 | [A,^CE]6 | %191
 [F,A,D]6 | [A,DF]6 | [_B,DF]6 | [A,CF]2 [A,CF]2 [A,CF]2 | ([A,CF] [G,CE]4-) [G,CE] | %196
"_cresc." A,2 B,2 ^C2 | D2 E2 F2 | ^F2 G2 ^G2 |!8va(! A2 B2 ^c2 | d2 e2 f2 | ^f2 g2 ^g2 | a6 | %203
 [dg_b]6!8va)! | [_B,G]2 [B,F]2 [B,F]2 |[M:4/4] ED [F,A,D]6 |!<(! G,2 F,2 F,2 E,2!<)! | %207
!ff! !//-!D,4 D4 | !//-!D,4 D4 | z2 [D,D]2 z4 |] %210
V:6
 z12 |[K:C] z12 |{/A,,B,,} .C,2 C, B,, D,2 A,,2 C, B,, G,,2 | .C,2 C, B,, G,,2 A,,2 F,, D,,3 | %4
({/A,,B,,)} .C,2 C, B,, D,2 A,,2 C, B,, G,,2 | .C,2 C, B,, G,,2({/F,,G,,)} .A,,2 F,, A,,3 | %6
{/A,,B,,} .C,2 C, B,, D,2 A,,2 C, B,, G,,2 | .C,2 C, B,,G,,F,, (F,,G,,)G,, F,,E,,C,, | %8
!ff! [D,,,D,,]3 z8 [F,,,F,,] | [D,,,D,,]3 z8 [F,,,F,,] | [D,,,D,,]3 z3 [D,,,D,,]3 z3 | %11
 [D,,,D,,]3 z3 [D,,,D,,]3 z3 |!f! [D,,,D,,]3 [D,,,D,,]3 [D,,,D,,]3 [D,,,D,,]3 | %13
 [D,,,D,,]3 [D,,,D,,]3 [D,,,D,,]3 [D,,,D,,]3 | [D,,,D,,]3 [D,,,D,,]3 [D,,,D,,]3 [D,,,D,,]3 | %15
 [D,,,D,,]3 [D,,,D,,]3 [D,,,D,,]3 !>![G,,,G,,]!>![E,,,E,,]!>![C,,,C,,] |[M:6/8] !>![D,,,D,,]3 z3 || %17
[K:F][M:1/4] z2 |[M:3/4] [D,F,A,]6 | [D,F,B,]6 | [A,,E,]6 |[M:4/4] [D,F,]8 | %22
!mf! F,,D,F,,D, B,,F,B,,F, |[M:3/4] A,,E, A,,E, A,,E, | !>!D,,D, !>!D,,D, !>!D,,D, | %25
 !>!D,,D, !>!D,,D, !>!D,,D, | !>!D,,D, !>!D,,D, !>!D,,D, | [D,,D,]2 [D,,D,][D,,D,] [D,,D,]2 | %28
 [C,,C,]2 [C,,C,]2 [C,,C,]2 | [F,,,F,,]2 [F,,,F,,]2 [F,,,F,,]2 | [C,,C,]2 [C,,C,]2 [C,,C,][C,,C,] | %31
 [F,,,F,,]2 [F,,,F,,][F,,,F,,] [F,,,F,,]2 | [A,,,A,,]2 [A,,,A,,]2 [A,,,A,,]2 | D,3 E, C,2 | %34
 [A,,,A,,] [A,,,A,,]2 [A,,,A,,] [A,,,A,,]2 | [A,,,A,,] [A,,,A,,]2 [A,,,A,,] [A,,,A,,][A,,,A,,] | %36
 [D,,D,]2 [D,,D,][D,,D,] [D,,D,]2 | [C,,C,]2 [C,,C,]2 [C,,C,]2 | %38
 [F,,,F,,]3 [F,,,F,,] [A,,,F,,A,,]2 | [B,,,B,,]2 [B,,,B,,]2 [B,,,B,,][A,,,A,,] | %40
 [D,,,D,,]2 [E,,,E,,]2 [F,,,F,,]2 | [G,,,G,,]2 [G,,,G,,]2 [G,,,G,,][G,,,G,,] | %42
 [A,,,A,,]2 [A,,,A,,]2 [A,,,A,,]2 | [A,,,A,,]2 [A,,,A,,]2 [A,,,A,,]2 | D,6 || [D,,D,]6 | %46
 [A,,,A,,]6 | [D,,D,]6 | [A,,,A,,]6 | [B,,,B,,]2 [B,,,B,,]2 [B,,,B,,]2 | %50
 [F,,,F,,]2 [F,,,F,,]2 [F,,,F,,]2 | [G,,,G,,]2 [G,,,G,,]2 [G,,,G,,][G,,,G,,] | %52
 [A,,,A,,]2 [A,,,A,,]2 [A,,,A,,]2 | [D,,D,]2 z3 [D,,D,] | [D,,D,]2 z3 [D,,D,] | [D,,D,]2 z4 | %56
 z [A,,,A,,]2 [A,,,A,,]2 [A,,,A,,] | [D,,D,]2 z3 [D,,D,] | [D,,D,]2 z3 [D,,D,] | [D,,D,]2 z4 | %60
 z [A,,,A,,]2 [A,,,A,,]2 [A,,,A,,] |[M:1/4] [D,,D,][D,,D,] | %62
[M:3/4] [D,,D,]2 [D,,D,][D,,D,] [D,,D,]2 | [C,,C,]2 [C,,C,]2 [C,,C,]2 | %64
 [F,,,F,,]2 [F,,,F,,]2 [F,,,F,,]2 | [C,,C,]2 [C,,C,]2 [C,,C,][C,,C,] | %66
 [F,,,F,,]2 [F,,,F,,][F,,,F,,] [F,,,F,,]2 | [A,,,A,,]2 [A,,,A,,]2 z2 | [A,,,A,,]2 z2 [A,,,A,,]2 | %69
[M:4/4] !>!D,,!>!D,!>!D,,!>!D, !>!D,,!>!D,!>![D,,D,]!>!D,, | D,D,,D,D,, D,[D,,D,][D,,D,][D,,D,] | %71
 D,,D,D,,D, D,,D,[D,,D,]D,, | D,D,,D,D,, D,[D,,D,][D,,D,][D,,D,] | D,,D,D,,D, D,,D,[D,,D,]D,, | %74
 D,D,,D,D,, D,[D,,D,][D,,D,][D,,D,] | D,,D,D,,D, D,,D,[D,,D,]D,, | %76
 D,D,,D,D,, D,[D,,D,][D,,D,][D,,D,] | D,,D,D,,D, D,,D, [D,,D,]>[D,,D,]- | %78
 [D,,D,]/[^C,,^C,][=C,,=C,][=B,,,=B,,][_B,,,_B,,][A,,,A,,][^G,,,^G,,][=G,,,=G,,][^F,,,^F,,]/- | %79
 [F,,,F,,]/[=F,,,=F,,][E,,,E,,][^D,,,^D,,]3/2 =D,,,2 z2 | z2 D,,,2 z4 | D,,,2 z4 [D,,,D,,]2 | %82
 [F,,,F,,]2 [C,,,C,,]2 D,,,2 z2 | z2 D,,,2 z4 | D,,,2 z4 [D,,,D,,]2 | %85
 [F,,,F,,]2 [C,,,C,,]2 !>![D,,,D,,]2 !>![C,,,C,,]2 | !>![A,,,,A,,,]4 z4 | %87
[M:3/4] [A,,,A,,]3 [A,,,A,,]3 | [A,,,A,,]3 [A,,,A,,]3 | [A,,,A,,]3 [A,,,A,,]3 | %90
 [A,,,A,,]2 [A,,,A,,]2 [A,,,A,,]2 | [A,,,A,,]2 [A,,,A,,]2 [A,,,A,,]2 | [D,,D,]2 z4 | %93
 [A,,,A,,]2 z2 [A,,,A,,]2 | [D,,D,]2 z2 [D,,D,]2 | [A,,,A,,]2 z2 [A,,,A,,]2 | %96
 [B,,,B,,]2 z2 [B,,,B,,]2 | [D,,D,]2 z2 [D,,D,]2 | [A,,,A,,]2 [A,,,A,,]2 [A,,,A,,]2 | %99
 [D,,D,]2 [D,,D,]2 [D,,D,]2 | [D,,D,]2 z4 | [A,,,A,,]2 z2 [A,,,A,,]2 | [D,,D,]2 z2 [D,,D,]2 | %103
 [C,,C,]2 z2 [C,,C,]2 | [B,,,B,,]2 z2 [B,,,B,,]2 | [D,,D,]2 z2 [D,,D,]2 | %106
 [A,,,A,,]2 [A,,,A,,]2 [A,,,A,,]2 | [D,,D,]2 [D,,D,]2 [D,,D,]2 | [D,,D,]2 [D,,D,]2 [D,,D,]2 | %109
 [D,,D,]6 | [B,,,B,,]6 | [F,,,F,,]6 | [C,,,C,,]6 | [G,,,G,,]6 | [D,,D,]6 | [A,,,A,,]6 | [D,,D,]6 | %117
 [D,,D,]6 | [B,,,B,,]6 | [F,,F,]6 | [C,,C,]6 | A,,2 =B,,2 ^C,2 | D,2 E,2 F,2 | G,2 z4 | %124
!mp! [D,,D,]2 z2 [D,,D,]2 | [C,,C,]2 z2 [C,,C,]2 | [F,,,F,,]2 z2 [F,,,F,,]2 | %127
 [C,,C,]2 z2 [C,,C,]2 | [F,,,F,,]2 z2 [F,,,F,,]2 | [A,,,A,,]2 [A,,,A,,]2 [A,,,A,,]2 | %130
 [D,,D,]3 [E,,E,] [C,,C,]2 | [A,,,A,,] [A,,,A,,]3 [A,,,A,,]2 | [D,,D,]2 z2 [D,,D,]2 | %133
 [C,,C,]2 z2 [C,,C,]2 | [F,,,F,,]2 z2 [A,,,A,,]2 | [B,,,B,,]4 B,,A,, | D,2 E,2 F,2 | %137
 [G,,,G,,]2 z2 [G,,,G,,]2 | [A,,,A,,]2 z2 [A,,,A,,]2 | [A,,,A,,]2 z2 [A,,,A,,]2 | %140
 [A,,A,]2 [G,,G,]2 [F,,F,]2 | [E,,E,]2 [D,,D,]2 [C,,C,]2 | [B,,,B,,]2 [A,,,A,,]2 [G,,,G,,]2 | %143
 [A,,A,]2 [G,,G,]2 [F,,F,]2 | [E,,E,]2 [D,,D,]2 [C,,C,]2 | [B,,,B,,]2 [A,,,A,,]2 [G,,,G,,]2 | %146
 [A,,,A,,]2 [A,,,A,,]2 [A,,,A,,]2 | [A,,,A,,]6 ||[K:C][M:1/4] z2 |[M:4/4] A,,8- | A,,8 | G,,8 | %152
 F,,6 E,,2 |[M:2/4] E,,4 |[M:4/4] (A,,3 G,,) F,,4 | G,,4 A,,4 | (A,,3 G,,) F,,4 | G,,4 D,,2 E,,2 | %158
 F,,2 (F,,E,,) _B,,,4 | G,,4 (D,,3 C,,) | _B,,,4 [A,,D,]2 [D,,A,,]2 | [A,,,E,,]8 || %162
[M:12/8] [D,,D,]2 z8 z2 | [D,,D,]2 z8 z2 | [D,,D,]2 z4 [D,,D,]3 [A,,,A,,]3 | %165
 [D,,D,]3 [D,,D,]3 [_B,,,_B,,]3 [B,,,B,,]3 | [A,,,A,,]3 [A,,,A,,]3 [D,,D,]6 | %167
 [_B,,,_B,,]3 [B,,,B,,]3 [F,,,F,,]3 [F,,,F,,]3 | [C,,C,]3 [C,,C,]3 [D,,D,]3 [D,,,D,,] [D,,,D,,]2 | %169
 [D,,D,]3 [D,,D,]3 [_B,,,_B,,]3 [B,,,B,,]3 | [G,,,G,,]3 [G,,,G,,]3 [D,,D,]3 [D,,D,]3 | %171
 [_B,,,_B,,]3 [B,,,B,,]3 [D,,D,]3 [D,,D,]3 | [A,,,A,,]3 [A,,,A,,]3 [A,,,A,,]3 [A,,,A,,]3 | %173
 [D,,D,]3 [D,,D,]3 [_B,,,_B,,]3 [B,,,B,,]3 | [A,,,A,,]3 [A,,,A,,]3 [D,,D,]6 | %175
 [_B,,,_B,,]3 [B,,,B,,]3 [F,,,F,,]3 [F,,,F,,]3 | [C,,C,]3 [C,,C,]3 [D,,D,]3 [D,,,D,,] [D,,,D,,]2 | %177
 [D,,D,]3 [D,,D,]3 [_B,,,_B,,]3 [B,,,B,,]3 | [G,,,G,,]3 [G,,,G,,]3 [D,,D,]3 [D,,D,]3 | %179
 [_B,,,_B,,]3 [B,,,B,,]3 [D,,D,]3 [D,,D,]3 | [A,,,A,,]3 [A,,,A,,]3 [A,,,A,,]3 [A,,,A,,]3 | %181
 [A,,,A,,]3 [A,,,A,,]3 [A,,,A,,]3 [A,,,A,,]3 | [A,,,A,,]3 [A,,,A,,]3 [A,,,A,,]3 [A,,,A,,]3 | %183
 [A,,,A,,]3 [A,,,A,,]3 [A,,,A,,]3 [A,,,A,,]3 |[M:3/4] [D,,D,]6 | [_B,,,_B,,]6 | %186
 [F,,,F,,]3 [F,,,F,,]3 | [C,,,C,,]6 | [G,,,G,,]6 | [D,,D,]6 | [A,,,A,,]6 | [D,,D,]6 | [D,,D,]6 | %193
 [_B,,,_B,,]6 | [F,,F,]2 [F,,F,]2 [F,,F,]2 | [C,,C,]6 | [A,,A,]2 [G,,G,]2 [F,,F,]2 | %197
 [E,,E,]2 [D,,D,]2 [C,,C,]2 | [_B,,,_B,,]2 [A,,,A,,]2 [G,,,G,,]2 | [A,,A,]2 [G,,G,]2 [F,,F,]2 | %200
 [E,,E,]2 [D,,D,]2 [C,,C,]2 | [_B,,,_B,,]2 [A,,,A,,]2 [G,,,G,,]2 |!ff! [A,,,A,,]6 | [A,,,A,,]6 | %204
 [G,,,G,,]2 [G,,,G,,]2 [A,,,A,,]2 |[M:4/4] [A,,,A,,]2 [D,,D,]6 | %206
 [G,,,G,,]2 [F,,,F,,]2 [F,,,F,,]2 [E,,,E,,]2 | !//-!D,,,4 D,,4 | !//-!D,,,4 D,,4 | %209
 z2 [D,,,D,,]2 z4 |] %210
V:7
 x12 |[K:C] x12 | x12 | x12 | x12 | x12 | x12 | x12 | x12 | x12 | x12 | x12 | x12 | x12 | x12 | %15
 x12 |[M:6/8] x6 ||[K:F][M:1/4] x2 |[M:3/4] x6 | x6 | x6 |[M:4/4] x8 | x8 |[M:3/4] x6 | x6 | x6 | %26
 x6 | x6 | x6 | x6 | x6 | x6 | x6 | x6 | x6 | x6 | x6 | x6 | x6 | x6 | x6 | x6 | x6 | x3 A,3 | %44
 x6 || x6 | E,6 | x6 | x6 | x6 | x6 | x6 | x6 | x6 | x6 | x6 | x6 | x6 | x6 | x6 | x6 |[M:1/4] x2 | %62
[M:3/4] x6 | x6 | x6 | x6 | x6 | x6 | x6 |[M:4/4] x8 | x8 | x8 | x8 | x8 | x8 | x8 | x8 | x8 | x8 | %79
 x8 | x8 | x8 | x8 | x8 | x8 | x8 | x8 |[M:3/4] x6 | x6 | x6 | x6 | x6 | x6 | x6 | x6 | x6 | x6 | %97
 x6 | x6 | x6 | x6 | x6 | x6 | x6 | x6 | x6 | x6 | x6 | x6 | x6 | x6 | x6 | x6 | x6 | x6 | x6 | %116
 x6 | x6 | x6 | x6 | x6 | x6 | x6 | x6 | x6 | x6 | x6 | x4 C2 | x6 | x6 | x6 | x6 | x6 | x6 | x6 | %135
 x6 | x6 | x6 | x6 | x6 | x6 | x6 | x6 |!8va(! x6 | x6 | x6 | x6 | x6!8va)! ||[K:C][M:1/4] x2 | %149
[M:4/4] x8 | x8 | x8 | x8 |[M:2/4] x4 |[M:4/4] x8 | x8 | x8 | x8 | x8 | x8 | x8 | D,4 ^C,4 || %162
[M:12/8] x12 | x12 | x12 | x12 | x6 A,4 x2 | x12 | x12 | x12 | x12 | x12 | x12 | x12 | x6 A,4 x2 | %175
 x12 | x12 | x12 | x12 | x12 | x12 | x12 | x12 | x12 |[M:3/4] x6 | x6 | x6 | x6 | x6 | x6 | x6 | %191
 x6 | x6 | x6 | x6 | x6 | x6 | x6 | x6 |!8va(! x6 | x6 | x6 | x6 | x6!8va)! | x6 |[M:4/4] _B,2 x6 | %206
 x8 | x8 | x8 | x8 |] %210

